X:79
T:Petticoat Wag. (p)1651.PLFD.079
T:Tailor's Daughter,The. (p)1651.PLFD.079
M:6/4
L:1/4
Q:3/4=110
S:Playford, Dancing Master,1st Ed.,1651.
O:England
H:1651.
Z:Chris Partington.
K:F
d2cB>cA|G2A^F3|G2AB3|B2cd3|
dfef>ga|g2g^f2d|d>edc2A|B2cd3:|
|:f2ga>ga|b2df3|A2Bc>Bc|d2ef>ed|
g3-g2e|a3-a2f|b>agg>a^f|g6:|
